!! 00013] TT[TB
!! NN
!!!OTL: Zizhu diao
!!!ARE: Asia, China,Jiangsu, Suzhou(SÅden)
!! Ethnic Group: Han
!! III, 484
!!!SCT: C0330
!!!YEM: Copyright 1995, estate of Helmut Schaffrath.
**kern
*ICvox
*Ivox
*M2/4
*k[]
*C:
{8.g
16a
8cc
8dd
=1
8a
8g
4e
=2
8g
8d
8e
8g
=3
8g
4.c}
=4
{8e
8g
8e
8g
=5
16d
16e
16d
16c
4c
=6
8c
4.G}
=7
{8dd
16dd
16cc
16a
16g
8e
=8
2g
=9
16.e
32g
16e
16g
16a
16g
16a
16cc
=10
2g}
=11
{8.g
16a
8cc
8dd
=12
8a
8g
16g
16e
8d
=13
8g
8d
8e
8g
=14
8g
4.c}
=15
{8.c
16A
8g
16g
16e
=16
16d
16e
16d
16c
4d}
=17
{8e
16e
16g
8g
8A
=18
8.c
16d
16B
16A
8G
=19
2A}
=20
{8.c
16A
8g
16g
16e
=21
16d
16e
16d
16c
4d}
=22
{8a
8cc
16a
8.cc
=23
4dd
8cc
16cc
16g
=24
8a
8dd
16dd
16cc
8a
=25
2g}
==
!!!AGN: Xiaodiao
!! cf. Manuskript Lian Bo. cf. Band 21, 8 = Variante. Dies hier ist
!!    eine qualitativ schlechte Aufnahme. cf. Fotokopie der Shanghai-
!!    Oper.
!!    Wenig Verzierungen. Vorspiel weggelassen.
!!!ONB: ESAC (Essen Associative Code) Database: CHINA_046
!!!AMT: simple duple
!!!AIN: vox
!!!EED: Helmut Schaffrath
!!!EEV: 1.0
*-
